**harm	**harte	**timestamp	**phrase	**leadinstrument	**kern
*M4/4	*M4/4	*	*	*	*
*B-:	*B-:	*	*	*	*B-:
1r;	N	0	.	r	1r;
=1	=1	=1	=1	=1	=1
*>A_chorus	*>A_chorus	*>A_chorus	*>A_chorus	*>A_chorus	*>A_chorus
1i	B-:min	0.348	newline	voice	1B- 1dd- 1ff
=2	=2	=2	=2	=2	=2
1Id	B-:sus4(b7)/b7	2.509	.	voice	1b- 1dd 1ff
=3	=3	=3	=3	=3	=3
1-VI7	G-:maj7	4.669	.	voice	1G- 1b- 1dd- 1ff
=4	=4	=4	=4	=4	=4
2V	F:sus4(b7)	6.829	.	voice	2F 2a 2cc
2V7	F:7	7.909	.	voice	2F 2a 2cc 2ee-
=5	=5	=5	=5	=5	=5
1i	B-:min	8.989	newline	voice	1B- 1dd- 1ff
=6	=6	=6	=6	=6	=6
1Id	B-:sus4(b7)/b7	11.094	.	voice	1b- 1dd 1ff
=7	=7	=7	=7	=7	=7
1-VI7	G-:maj7	13.199	.	voice	1G- 1b- 1dd- 1ff
=8	=8	=8	=8	=8	=8
2V	F:sus4(b7)	15.304	.	voice	2F 2a 2cc
2V7	F:7	16.357	.	voice	2F 2a 2cc 2ee-
=9	=9	=9	=9	=9	=9
*>B_verse	*>B_verse	*>B_verse	*>B_verse	*>B_verse	*>B_verse
2.-VI	G-:maj	17.409	newline	voice	2G- 2b- 2dd-
4-viim7	A-:min7	18.979	.	voice	4A- 4cc- 4ee- 4gg
=10	=10	=10	=10	=10	=10
1-III	D-:maj	19.502	.	voice	1D- 1f 1a-
=11	=11	=11	=11	=11	=11
2.-VI	G-:maj	21.595	.	voice	2G- 2b- 2dd-
4-viim7	A-:min7	23.165	.	voice	4A- 4cc- 4ee- 4gg
=12	=12	=12	=12	=12	=12
1-III	D-:maj	23.688	.	voice	1D- 1f 1a-
=13	=13	=13	=13	=13	=13
2.-VI	G-:maj	25.781	newline	voice	2G- 2b- 2dd-
4-viim7	A-:min7	27.357	.	voice	4A- 4cc- 4ee- 4gg
=14	=14	=14	=14	=14	=14
1-III	D-:maj	27.882	.	voice	1D- 1f 1a-
=15	=15	=15	=15	=15	=15
2.-VI	G-:maj	29.983	.	voice	2G- 2b- 2dd-
4-viim7	A-:min7	31.559	.	voice	4A- 4cc- 4ee- 4gg
=16	=16	=16	=16	=16	=16
1-III	D-:maj	32.085	.	voice	1D- 1f 1a-
=17	=17	=17	=17	=17	=17
*>C_prechorus	*>C_prechorus	*>C_prechorus	*>C_prechorus	*>C_prechorus	*>C_prechorus
2IV	E-:sus4(b7)	34.186	newline	voice	2E- 2g 2b-
2iv	E-:min	35.24	.	voice	2E- 2g- 2b-
=18	=18	=18	=18	=18	=18
1iv	E-:min	36.295	.	voice	1E- 1g- 1b-
=19	=19	=19	=19	=19	=19
1I	B-:maj	38.404	.	voice	1B- 1dd 1ff
=20	=20	=20	=20	=20	=20
1-iio	C-:dim	40.513	.	voice	1C- 1e-- 1g--
=21	=21	=21	=21	=21	=21
1I	B-:1	42.622	newline	voice	1B- 1dd 1ff
=22	=22	=22	=22	=22	=22
1I	B-:1	44.744	.	voice	1B- 1dd 1ff
=23	=23	=23	=23	=23	=23
1I	B-:1	46.866	.	voice	1B- 1dd 1ff
=24	=24	=24	=24	=24	=24
1I	B-:1	48.988	.	voice	1B- 1dd 1ff
=25	=25	=25	=25	=25	=25
*>A_chorus	*>A_chorus	*>A_chorus	*>A_chorus	*>A_chorus	*>A_chorus
1i	B-:min	51.11	newline	voice	1B- 1dd- 1ff
=26	=26	=26	=26	=26	=26
1Id	B-:sus4(b7)/b7	53.215	.	voice	1b- 1dd 1ff
=27	=27	=27	=27	=27	=27
1-VI7	G-:maj7	55.32	.	voice	1G- 1b- 1dd- 1ff
=28	=28	=28	=28	=28	=28
2V	F:sus4(b7)	57.425	.	voice	2F 2a 2cc
2V7	F:7	58.477	.	voice	2F 2a 2cc 2ee-
=29	=29	=29	=29	=29	=29
1i	B-:min	59.53	newline	voice	1B- 1dd- 1ff
=30	=30	=30	=30	=30	=30
1Id	B-:sus4(b7)/b7	61.634	.	voice	1b- 1dd 1ff
=31	=31	=31	=31	=31	=31
1-VI7	G-:maj7	63.739	.	voice	1G- 1b- 1dd- 1ff
=32	=32	=32	=32	=32	=32
2V	F:sus4(b7)	65.843	.	voice	2F 2a 2cc
2V7	F:7	66.896	.	voice	2F 2a 2cc 2ee-
=33	=33	=33	=33	=33	=33
*>B_verse	*>B_verse	*>B_verse	*>B_verse	*>B_verse	*>B_verse
2.-VI	G-:maj	67.948	newline	voice	2G- 2b- 2dd-
4-viim7	A-:min7	69.521	.	voice	4A- 4cc- 4ee- 4gg
=34	=34	=34	=34	=34	=34
1-III	D-:maj	70.046	.	voice	1D- 1f 1a-
=35	=35	=35	=35	=35	=35
2.-VI	G-:maj	72.143	.	voice	2G- 2b- 2dd-
4-viim7	A-:min7	73.717	.	voice	4A- 4cc- 4ee- 4gg
=36	=36	=36	=36	=36	=36
1-III	D-:maj	74.241	.	voice	1D- 1f 1a-
=37	=37	=37	=37	=37	=37
2.-VI	G-:maj	76.339	newline	voice	2G- 2b- 2dd-
4-viim7	A-:min7	77.925	.	voice	4A- 4cc- 4ee- 4gg
=38	=38	=38	=38	=38	=38
1-III	D-:maj	78.454	.	voice	1D- 1f 1a-
=39	=39	=39	=39	=39	=39
2.-VI	G-:maj	80.569	.	voice	2G- 2b- 2dd-
4-viim7	A-:min7	82.155	.	voice	4A- 4cc- 4ee- 4gg
=40	=40	=40	=40	=40	=40
1-III	D-:maj	82.683	.	voice	1D- 1f 1a-
=41	=41	=41	=41	=41	=41
*>C_prechorus	*>C_prechorus	*>C_prechorus	*>C_prechorus	*>C_prechorus	*>C_prechorus
2IV	E-:sus4(b7)	84.798	newline	voice	2E- 2g 2b-
2iv	E-:min	85.84	.	voice	2E- 2g- 2b-
=42	=42	=42	=42	=42	=42
1iv	E-:min	86.882	.	voice	1E- 1g- 1b-
=43	=43	=43	=43	=43	=43
1I	B-:maj	88.966	.	voice	1B- 1dd 1ff
=44	=44	=44	=44	=44	=44
1-iio	C-:dim	91.05	.	voice	1C- 1e-- 1g--
=45	=45	=45	=45	=45	=45
1I	B-:1	93.134	newline	voice	1B- 1dd 1ff
=46	=46	=46	=46	=46	=46
1I	B-:1	95.24	.	voice	1B- 1dd 1ff
=47	=47	=47	=47	=47	=47
1I	B-:1	97.345	.	voice	1B- 1dd 1ff
=48	=48	=48	=48	=48	=48
1I	B-:1	99.45	.	voice	1B- 1dd 1ff
=49	=49	=49	=49	=49	=49
*>B_verse	*>B_verse	*>B_verse	*>B_verse	*>B_verse	*>B_verse
2.-VI	G-:maj	101.556	newline	voice	2G- 2b- 2dd-
4-viim7	A-:min7	103.135	.	voice	4A- 4cc- 4ee- 4gg
=50	=50	=50	=50	=50	=50
1-III	D-:maj	103.662	.	voice	1D- 1f 1a-
=51	=51	=51	=51	=51	=51
2.-VI	G-:maj	105.768	.	voice	2G- 2b- 2dd-
4-viim7	A-:min7	107.347	.	voice	4A- 4cc- 4ee- 4gg
=52	=52	=52	=52	=52	=52
1-III	D-:maj	107.874	.	voice	1D- 1f 1a-
=53	=53	=53	=53	=53	=53
2.-VI	G-:maj	109.98	newline	voice	2G- 2b- 2dd-
4-viim7	A-:min7	111.566	.	voice	4A- 4cc- 4ee- 4gg
=54	=54	=54	=54	=54	=54
1-III	D-:maj	112.094	.	voice	1D- 1f 1a-
=55	=55	=55	=55	=55	=55
2.-VI	G-:maj	114.209	.	voice	2G- 2b- 2dd-
4-viim7	A-:min7	115.795	.	voice	4A- 4cc- 4ee- 4gg
=56	=56	=56	=56	=56	=56
1-III	D-:maj	116.323	.	voice	1D- 1f 1a-
=57	=57	=57	=57	=57	=57
*>C_prechorus	*>C_prechorus	*>C_prechorus	*>C_prechorus	*>C_prechorus	*>C_prechorus
2IV	E-:sus4(b7)	118.438	newline	voice	2E- 2g 2b-
2iv	E-:min	119.491	.	voice	2E- 2g- 2b-
=58	=58	=58	=58	=58	=58
1iv	E-:min	120.544	.	voice	1E- 1g- 1b-
=59	=59	=59	=59	=59	=59
1I	B-:maj	122.649	.	voice	1B- 1dd 1ff
=60	=60	=60	=60	=60	=60
1-iio	C-:dim	124.755	.	voice	1C- 1e-- 1g--
=61	=61	=61	=61	=61	=61
1I	B-:1	126.86	newline	voice	1B- 1dd 1ff
=62	=62	=62	=62	=62	=62
1I	B-:1	128.975	.	voice	1B- 1dd 1ff
=63	=63	=63	=63	=63	=63
1I	B-:1	131.089	.	voice	1B- 1dd 1ff
=64	=64	=64	=64	=64	=64
1I	B-:1	133.203	.	voice	1B- 1dd 1ff
=65	=65	=65	=65	=65	=65
*>A_chorus	*>A_chorus	*>A_chorus	*>A_chorus	*>A_chorus	*>A_chorus
1i	B-:min	135.318	newline	voice	1B- 1dd- 1ff
=66	=66	=66	=66	=66	=66
1Id	B-:sus4(b7)/b7	137.413	.	voice	1b- 1dd 1ff
=67	=67	=67	=67	=67	=67
1-VI7	G-:maj7	139.508	.	voice	1G- 1b- 1dd- 1ff
=68	=68	=68	=68	=68	=68
2V	F:sus4(b7)	141.603	.	voice	2F 2a 2cc
2V7	F:7	142.65	.	voice	2F 2a 2cc 2ee-
=69	=69	=69	=69	=69	=69
*>_fadeout	*>_fadeout	*>_fadeout	*>_fadeout	*>_fadeout	*>_fadeout
1i	B-:min	143.698	newline	voice	1B- 1dd- 1ff
=70	=70	=70	=70	=70	=70
1Id	B-:sus4(b7)/b7	145.787	.	voice	1b- 1dd 1ff
=71	=71	=71	=71	=71	=71
1-VI7	G-:maj7	147.877	.	voice	1G- 1b- 1dd- 1ff
=72	=72	=72	=72	=72	=72
2V	F:sus4(b7)	149.967	.	voice	2F 2a 2cc
2V7	F:7	151.012	.	voice	2F 2a 2cc 2ee-
=73	=73	=73	=73	=73	=73
1i	B-:min	152.056	newline	voice	1B- 1dd- 1ff
=74	=74	=74	=74	=74	=74
1Id	B-:sus4(b7)/b7	153.174	.	voice	1b- 1dd 1ff
=75	=75	=75	=75	=75	=75
1-VI7	G-:maj7	154.292	.	voice	1G- 1b- 1dd- 1ff
=76	=76	=76	=76	=76	=76
2V	F:sus4(b7)	155.41	.	voice	2F 2a 2cc
2V7	F:7	155.969	.	voice	2F 2a 2cc 2ee-
1r;	N	156.528	.	r	1r;
1r;	N	158.989	.	r	1r;
*-	*-	*-	*-	*-	*-
!!!OTL: Standing In The Shadows Of Love
!!!COC: Four Tops
!!!BillboardChartDate: 1967/02/18, 1967/02/11
!!!BillboardPeak: 6, 6
!!!BillboardWeeksOnChart: 10, 10
!!!SampleTargetRank: 24, 17
!!!SampleActualRank: 26, 18
!!!SampleID#: 1192, 1283
!!!RDF**harmony: **recip + pitch class of root + harmonic quality
!!!RDF**harte: Chris Harte's syntax, used by MIREX
!!!RDF**phrase: newline = linebreak in original McGill transcription
!!!RDF**timestamp: McGill audio timestamp in seconds
!!!RDF**leadinstrument: original McGill primary instrumentation annotation
!!!RDT: 2017/01/12/
!!!ENC: Nathaniel Condit-Schultz
!!!EST: Awating manual error checking and editing.
